X: 21
T:Ross's Reel
% Nottingham Music Database
S:via PR
M:4/4
L:1/4
K:F
a|"C"g3/2f/2 "C7"ed|"F"c/2d/2c/2B/2 AG/2\
P:3
F/2|"C"E/2C/2E/2G/2 "C7"c/2d/2c/2B/2|"F"A/2F/2A/2c/2 fa|
"C"g3/2f/2 "C7"ed|"F"c/2d/2c/2B/2 AG/2F/2|"C7"E/2F/2G/2A/2 B/2c/2d/2e/2|\
"F"fa f::
c/2B/2|"F"A/2c/2c/2c/2 d/2c/2c/2c/2|A/2c/2f/2c/2 a/2c/2f/2c/2|\
"F"A/2c/2c/2c/2 d/2c/2c/2c/2|A/2c/2f/2c/2 a/2c/2f/2c/2|
"F"A/2c/2c/2c/2 d/2c/2c/2c/2|"C"=B/2c/2e/2c/2 g/2c/2_b/2c/2|\
=B/2c/2e/2c/2 g/2c/2_b/2c/2|"C7"a/2c/2g/2c/2 "F"f:|<end>
<start>
